static/img/kroki/afa07dc753efc1eff29c29ee7c5906bd.svg

<?xml version="1.0" encoding="us-ascii" standalone="no"?><svg xmlns="http://www.w3.org/2000/svg" xmlns:xlink="http://www.w3.org/1999/xlink" contentStyleType="text/css" height="152px" preserveAspectRatio="none" style="width:814px;height:152px;" version="1.1" viewBox="0 0 814 152" width="814px" zoomAndPan="magnify"><defs/><g><!--class azure_network_local_network_gateway--><g id="elem_azure_network_local_network_gateway"><rect codeLine="23" fill="#3D176E" height="39.7891" id="azure_network_local_network_gateway" rx="2.5" ry="2.5" style="stroke:#000D19;stroke-width:0.5;" width="374" x="7" y="7"/><ellipse cx="22" cy="26.8945" fill="#ADD1B2" rx="11" ry="11" style="stroke:#181818;stroke-width:1.0;"/><path d="M24.9688,32.5352 Q24.3906,32.832 23.75,32.9727 Q23.1094,33.1289 22.4063,33.1289 Q19.9063,33.1289 18.5781,31.4883 Q17.2656,29.832 17.2656,26.707 Q17.2656,23.582 18.5781,21.9258 Q19.9063,20.2695 22.4063,20.2695 Q23.1094,20.2695 23.75,20.4258 Q24.4063,20.582 24.9688,20.8789 L24.9688,23.5977 Q24.3438,23.0195 23.75,22.7539 Q23.1563,22.4727 22.5313,22.4727 Q21.1875,22.4727 20.5,23.5508 Q19.8125,24.6133 19.8125,26.707 Q19.8125,28.8008 20.5,29.8789 Q21.1875,30.9414 22.5313,30.9414 Q23.1563,30.9414 23.75,30.6758 Q24.3438,30.3945 24.9688,29.8164 L24.9688,32.5352 Z " fill="#000000"/><text fill="#D9B8FF" font-family="Helvetica" font-size="17" lengthAdjust="spacing" textLength="332" x="41" y="32.7798">azure_network_local_network_gateway</text></g><!--class azure_network_virtual_network_gateway--><g id="elem_azure_network_virtual_network_gateway"><rect codeLine="26" fill="#3D176E" height="39.7891" id="azure_network_virtual_network_gateway" rx="2.5" ry="2.5" style="stroke:#000D19;stroke-width:0.5;" width="391" x="416.5" y="7"/><ellipse cx="431.5" cy="26.8945" fill="#ADD1B2" rx="11" ry="11" style="stroke:#181818;stroke-width:1.0;"/><path d="M434.4688,32.5352 Q433.8906,32.832 433.25,32.9727 Q432.6094,33.1289 431.9063,33.1289 Q429.4063,33.1289 428.0781,31.4883 Q426.7656,29.832 426.7656,26.707 Q426.7656,23.582 428.0781,21.9258 Q429.4063,20.2695 431.9063,20.2695 Q432.6094,20.2695 433.25,20.4258 Q433.9063,20.582 434.4688,20.8789 L434.4688,23.5977 Q433.8438,23.0195 433.25,22.7539 Q432.6563,22.4727 432.0313,22.4727 Q430.6875,22.4727 430,23.5508 Q429.3125,24.6133 429.3125,26.707 Q429.3125,28.8008 430,29.8789 Q430.6875,30.9414 432.0313,30.9414 Q432.6563,30.9414 433.25,30.6758 Q433.8438,30.3945 434.4688,29.8164 L434.4688,32.5352 Z " fill="#000000"/><text fill="#D9B8FF" font-family="Helvetica" font-size="17" lengthAdjust="spacing" textLength="349" x="450.5" y="32.7798">azure_network_virtual_network_gateway</text></g><!--class azure_network_virtual_network_gateway_connection--><g id="elem_azure_network_virtual_network_gateway_connection"><rect codeLine="29" fill="#3D176E" height="39.7891" id="azure_network_virtual_network_gateway_connection" rx="2.5" ry="2.5" style="stroke:#000D19;stroke-width:0.5;" width="491" x="157.5" y="106.79"/><ellipse cx="172.5" cy="126.6845" fill="#ADD1B2" rx="11" ry="11" style="stroke:#181818;stroke-width:1.0;"/><path d="M175.4688,132.3252 Q174.8906,132.622 174.25,132.7627 Q173.6094,132.9189 172.9063,132.9189 Q170.4063,132.9189 169.0781,131.2783 Q167.7656,129.622 167.7656,126.497 Q167.7656,123.372 169.0781,121.7158 Q170.4063,120.0595 172.9063,120.0595 Q173.6094,120.0595 174.25,120.2158 Q174.9063,120.372 175.4688,120.6689 L175.4688,123.3877 Q174.8438,122.8095 174.25,122.5439 Q173.6563,122.2627 173.0313,122.2627 Q171.6875,122.2627 171,123.3408 Q170.3125,124.4033 170.3125,126.497 Q170.3125,128.5908 171,129.6689 Q171.6875,130.7314 173.0313,130.7314 Q173.6563,130.7314 174.25,130.4658 Q174.8438,130.1845 175.4688,129.6064 L175.4688,132.3252 Z " fill="#000000"/><text fill="#D9B8FF" font-family="Helvetica" font-size="17" lengthAdjust="spacing" textLength="449" x="191.5" y="132.5698">azure_network_virtual_network_gateway_connection</text></g><!--link azure_network_local_network_gateway to azure_network_virtual_network_gateway_connection--><g id="link_azure_network_local_network_gateway_azure_network_virtual_network_gateway_connection"><path codeLine="32" d="M235.29,47.22 C271.93,64.36 319.7461,86.7259 356.3561,103.8659 " fill="none" id="azure_network_local_network_gateway-to-azure_network_virtual_network_gateway_connection" style="stroke:#1A83AF;stroke-width:2.0;"/><polygon fill="#1A83AF" points="361.79,106.41,355.3351,98.9713,357.2617,104.29,351.943,106.2165,361.79,106.41" style="stroke:#1A83AF;stroke-width:2.0;"/></g><!--link azure_network_virtual_network_gateway to azure_network_virtual_network_gateway_connection--><g id="link_azure_network_virtual_network_gateway_azure_network_virtual_network_gateway_connection"><path codeLine="33" d="M570.71,47.22 C534.07,64.36 486.2539,86.7259 449.6439,103.8659 " fill="none" id="azure_network_virtual_network_gateway-to-azure_network_virtual_network_gateway_connection" style="stroke:#1A83AF;stroke-width:2.0;"/><polygon fill="#1A83AF" points="444.21,106.41,454.057,106.2165,448.7383,104.29,450.6649,98.9713,444.21,106.41" style="stroke:#1A83AF;stroke-width:2.0;"/></g><!--SRC=[hP1FJm8n4CNl-ocQS2PX9GfSJ1OIeXTYn9inP6YdqEnkIwQpRC3utHLNITtbdz5Zv_rctdjT6eK2ynLlH8xv7Cb7FZLs1GIvI8XSENAP8z7I6dItLnV7pl9PO08vYZlCriX6GfruMXgPMlHUN0NI46Iw85TOLPrd0ki_9BGSKACCl4-OoSmBnY2C6ipxMjV9-j5MLyMz6snWZXJI5zBfT5Gyg2DdhKxstXDJiqKHXvysSOoDc0sBJ-faoXqHX6mK_TQFPdm0fOnTYEjWzbXb8elqOpvTWdBbZjQG-T36Cn8wtgnmr6Y5WxxIlOFm_J4uahkl4x0j26SMkNIKpZ8d8Tk_5i1OmaQyHj7RGNnjY8j_M9X9PorADivMkvUaQZ-tugJVJSOlxTjVsqIN5VcRnpi0]--></g></svg>

<svg xmlns="http://www.w3.org/2000/svg" width="814" height="152" viewBox="0 0 814 152"><rect width="374" height="39.789" x="7" y="7" fill="#3D176E" rx="2.5" ry="2.5" style="stroke:#000d19;stroke-width:.5"/><circle cx="22" cy="26.895" r="11" fill="#ADD1B2" style="stroke:#181818;stroke-width:1"/><path d="M24.969 32.535q-.578.297-1.219.438-.64.156-1.344.156-2.5 0-3.828-1.64-1.312-1.657-1.312-4.782t1.312-4.781q1.328-1.656 3.828-1.656.703 0 1.344.156.656.156 1.219.453v2.719q-.625-.578-1.219-.844-.594-.281-1.219-.281-1.343 0-2.031 1.078-.687 1.062-.687 3.156t.687 3.172q.688 1.062 2.031 1.062.625 0 1.219-.265.594-.281 1.219-.86z"/><text x="41" y="32.78" fill="#D9B8FF" font-family="Helvetica" font-size="17" textLength="332">azure_network_local_network_gateway</text><rect width="391" height="39.789" x="416.5" y="7" fill="#3D176E" rx="2.5" ry="2.5" style="stroke:#000d19;stroke-width:.5"/><circle cx="431.5" cy="26.895" r="11" fill="#ADD1B2" style="stroke:#181818;stroke-width:1"/><path d="M434.469 32.535q-.578.297-1.219.438-.64.156-1.344.156-2.5 0-3.828-1.64-1.312-1.657-1.312-4.782t1.312-4.781q1.328-1.656 3.828-1.656.703 0 1.344.156.656.156 1.219.453v2.719q-.625-.578-1.219-.844-.594-.281-1.219-.281-1.344 0-2.031 1.078-.687 1.062-.687 3.156t.687 3.172q.688 1.062 2.031 1.062.625 0 1.219-.265.594-.281 1.219-.86z"/><text x="450.5" y="32.78" fill="#D9B8FF" font-family="Helvetica" font-size="17" textLength="349">azure_network_virtual_network_gateway</text><rect width="491" height="39.789" x="157.5" y="106.79" fill="#3D176E" rx="2.5" ry="2.5" style="stroke:#000d19;stroke-width:.5"/><circle cx="172.5" cy="126.684" r="11" fill="#ADD1B2" style="stroke:#181818;stroke-width:1"/><path d="M175.469 132.325q-.578.297-1.219.438-.64.156-1.344.156-2.5 0-3.828-1.64-1.312-1.657-1.312-4.782t1.312-4.781q1.328-1.656 3.828-1.656.703 0 1.344.156.656.156 1.219.453v2.719q-.625-.579-1.219-.844-.594-.281-1.219-.281-1.344 0-2.031 1.078-.687 1.062-.687 3.156t.687 3.172q.688 1.062 2.031 1.062.625 0 1.219-.265.594-.281 1.219-.86z"/><text x="191.5" y="132.57" fill="#D9B8FF" font-family="Helvetica" font-size="17" textLength="449">azure_network_virtual_network_gateway_connection</text><path fill="none" d="M235.29 47.22c36.64 17.14 84.456 39.506 121.066 56.646" style="stroke:#1a83af;stroke-width:2"/><path fill="#1A83AF" d="m361.79 106.41-6.455-7.439 1.927 5.319-5.319 1.926z" style="stroke:#1a83af;stroke-width:2"/><path fill="none" d="M570.71 47.22c-36.64 17.14-84.456 39.506-121.066 56.646" style="stroke:#1a83af;stroke-width:2"/><path fill="#1A83AF" d="m444.21 106.41 9.847-.194-5.319-1.926 1.927-5.319z" style="stroke:#1a83af;stroke-width:2"/></svg>
